X: 10206
T: Dirty Bee, The
R: reel
M: 4/4
K: Dmajor
GA|:BAGA cAGA|dcAG A2 GA|BAGA cAGA|GAAG A2 GA|
BAGA cAGA|dcAG A2 GA|BAGA cAGA|1 GAAG A2 GA:|2 dAeA fAgA||
|:a2 fd defd|eA c/c/c efge|a2 fd defd|eAce defg|
a2 fd defd|eA c/c/c efge|a2 fd defd|1 eAce d2 e/f/g:|2 eAce d2 GA||
GA|:BAGA cAGA|dcAG A2 GA|BAGA cAGA|GAAG A2 GA|
BAGA cAGA|dcAG A2 GA|BAGA cAGA|1 GAAG A2 GA:|[K: Dmaj][2 dAeA fAgA||
|:a2 fd defd|eA c/c/c efge|a2 fd defd|eAce defg|
a2 fd defd|eA c/c/c efge|a2 fd defd|1 eAce d2 e/f/g:|2 eAce d2 GA||

